X: 33435
T: Rab's Wedding
R: jig
M: 6/8
K: Amixolydian
ed|:c2A Ace|a2e fee|d2B Bcd|f2e efe|
c2A Ace|a2e fee|d2B fee|A3 A2:|
ed|:c2e a2e|faa fee|d2B Bcd|f2e efe|
[1 c2e a2e|faa fee|d2B fee|A3 Aed:|
[2 c2A Ace|a2e fee|d2B fee|A3 A2||
e|:A3 c2d|efd c2e|dfd Bcd|f2e efe|
A3 c2d|efd c2e|d2B fee|A3 A2:|
g|:a3 fga|efd c2e|dfa Bcd|f2e efg|
[1 a3 fga|efd c2e|d2B fee|A3 A2:|
[2 f2a fee|efd c2e|d2B fee|A3 A2||

